src/16/actions/document-properties.svg

<svg xmlns="http://www.w3.org/2000/svg" viewBox="0 0 16 16"><path d="M2 2v12h12V2H2zm1 3h10v8H3V5zm1 1v6h2V6H4zm3 1v1h5V7H7zm0 3v1h5v-1H7z" fill="currentColor" color="#5d656b"/></svg>

<svg xmlns="http://www.w3.org/2000/svg" viewBox="0 0 16 16">
  <defs id="defs3051">
    <style type="text/css" id="current-color-scheme">
      .ColorScheme-Text {
        color:#5d656b;
      }
      </style>
  </defs>
 <path style="fill:currentColor;fill-opacity:1;stroke:none" 
      d="M 2 2 L 2 5 L 2 14 L 3 14 L 14 14 L 14 13 L 14 2 L 3 2 L 2 2 z M 3 5 L 13 5 L 13 13 L 3 13 L 3 5 z M 4 6 L 4 12 L 6 12 L 6 6 L 4 6 z M 7 7 L 7 8 L 12 8 L 12 7 L 7 7 z M 7 10 L 7 11 L 12 11 L 12 10 L 7 10 z "
     class="ColorScheme-Text"
     />
</svg>
